polaris-icons/icons/new-icons/ArrowRightMinor.svg

<svg width="20" height="20" viewBox="0 0 20 20" fill="none" xmlns="http://www.w3.org/2000/svg">
<path fill-rule="evenodd" clip-rule="evenodd" d="M3.49957 10C3.49957 9.58579 3.83536 9.25 4.24957 9.25L13.9392 9.25L11.2193 6.53036C10.9264 6.23748 10.9263 5.7626 11.2192 5.4697C11.5121 5.17679 11.987 5.17676 12.2799 5.46964L16.2803 9.46964C16.4209 9.6103 16.5 9.80107 16.5 10C16.5 10.1989 16.4209 10.3897 16.2803 10.5304L12.2799 14.5304C11.987 14.8232 11.5121 14.8232 11.2192 14.5303C10.9263 14.2374 10.9264 13.7625 11.2193 13.4696L13.9392 10.75L4.24957 10.75C3.83536 10.75 3.49957 10.4142 3.49957 10Z" fill="#4A4A4A"/>
</svg>

<svg viewBox="0 0 20 20" xmlns="http://www.w3.org/2000/svg"><path fill-rule="evenodd" d="M3.5 10a.75.75 0 0 1 .75-.75h9.69l-2.72-2.72a.75.75 0 1 1 1.06-1.06l4 4a.75.75 0 0 1 0 1.06l-4 4a.75.75 0 0 1-1.06-1.06l2.72-2.72h-9.69a.75.75 0 0 1-.75-.75Z" fill="#5C5F62"/></svg>
